!!!SOCIAL_FUNCTION:	moccasin game songs
!!!PDT:	1909
!!!OTL: No_176_I_Am_Standing_Till_Daylight.krn
!!!REG: Great_Lakes
!!!LANG: Non-Tone
!!!LING_GROUP: Algonquin
**kern	**kern
*staff2	*staff1
=1-	=1-
*clefF4	*clefG2
*k[f#c#]	*k[f#c#]
*M2/4	*M2/4
16GG/LK	4.f#/
8GG^/J	.
16r	.
16GG/LK	.
8GG^/J	.
.	8f#/
16r	.
=2	=2
2r	4f#/
.	8e/L
.	8d/J
=3	=3
2r	8f#/L
.	8f#/J
.	8e/L
.	8e/J
=4	=4
.	f#q/
2r	8d/L
.	8B/J
.	4d/
=5	=5
2r	8.B/L
.	16B/Jk
.	[4B/
=6	=6
2r	4B/]
.	8F#/
.	8r
=7	=7
2r	8.e/L
.	16d/Jk
.	4c#/
=8	=8
.	eq/
2r	8d/L
.	8B/J
.	4d/
=9	=9
*M3/4	*M3/4
2r	4.B/
.	8c#/
8r	(8B/
8A\	8r
=10	=10
4.F#\	2.r
8A\	.
8F#\L	.
8E\J	.
=11	=11
2.D\	2.r
=12	=12
2D\	2.r
8r	.
8d`\	.
=13	=13
4.B\	2.r
8c#\	.
8B\L	.
8A\J	.
=14	=14
4.F#\	2.r
16E\LL	.
16D\JJ	.
8E\L	.
8D\J	.
=15	=15
8.BB/L	2.r
16BB/Jk	.
[2BB/	.
=16	=16
(2.BB/]	2.r
=17	=17
2.r	8a/L
.	8a/J
.	8a/L
.	8a/J
.	4f#/
=18||	=18||
*M2/4	*M2/4
2r	4f#/
.	4d/
=19	=19
2r	(8f#/L
.	(8d/J)
.	4d/)
=20	=20
2r	4d/
.	4B/
=21	=21
2r	(8d/L
.	8B/J)
.	4B/
=22	=22
2r	4.B/
.	8B/
=23	=23
2r	2B/
==	==
*-	*-
